X: 281
T:An dro
M:4/4
L:1/4
Q:1/4=80
S:Jean-Michel Veillon
R:An dro
Z:Steve Mansfield &amp; Michael Hogan
K:Em
B B/c/ B B/G/ | A A/G/ F/G/F/E/ | B B/c/ BB/G/|1 AG/A/ FE :|2 AG/A/
F&gt;G|
|:E F/G/ A A/B/| A G/A/ B/c/B/G/ | E F/G/ A B/A/ | G E/A/ A/G/F/G/|
E F/G/ A A/B/ | A G/A/ B/c/B/G/ | E F/G/ A B/A/ | G/E/F/D/ EE:|

